storage/app/icons/phosphoricons/bold/square-half-bottom-bold.svg

<svg xmlns="http://www.w3.org/2000/svg" fill="currentColor" viewBox="0 0 256 256"><path d="M200 36H56a20 20 0 0 0-20 20v144a20 20 0 0 0 20 20h144a20 20 0 0 0 20-20V56a20 20 0 0 0-20-20m-4 24v56H60V60Zm-80 80v56h-16v-56Zm24 0h16v56h-16Zm-80 0h16v56H60Zm120 56v-56h16v56Z"/></svg>

<svg xmlns="http://www.w3.org/2000/svg" viewBox="0 0 256 256" fill="currentColor"><path d="M200,36H56A20,20,0,0,0,36,56V200a20,20,0,0,0,20,20H200a20,20,0,0,0,20-20V56A20,20,0,0,0,200,36Zm-4,24v56H60V60Zm-80,80v56H100V140Zm24,0h16v56H140Zm-80,0H76v56H60Zm120,56V140h16v56Z"/></svg>
